public/images/tokens/dai.svg

<svg width="24" height="24" viewBox="0 0 24 24" fill="none" xmlns="http://www.w3.org/2000/svg">
<path d="M12 24C18.6274 24 24 18.6274 24 12C24 5.37258 18.6274 0 12 0C5.37258 0 0 5.37258 0 12C0 18.6274 5.37258 24 12 24Z" fill="#F9A606"/>
<path d="M23.5 12C23.5 18.3513 18.3513 23.5 12 23.5C5.64873 23.5 0.5 18.3513 0.5 12C0.5 5.64873 5.64873 0.5 12 0.5C18.3513 0.5 23.5 5.64873 23.5 12Z" stroke="black" stroke-opacity="0.097"/>
<path fill-rule="evenodd" clip-rule="evenodd" d="M6.03709 5H11.8994C15.4653 5 18.1683 6.85123 19.1739 9.54498H21V11.1731H19.5584C19.5866 11.4304 19.601 11.6925 19.601 11.9588V11.9988C19.601 12.2986 19.5828 12.5933 19.5472 12.882H21V14.5102H19.1391C18.107 17.1664 15.425 19 11.8994 19H6.03709V14.5102H4V12.882H6.03709V11.1731H4V9.54498H6.03709V5ZM7.67596 14.5102V17.5394H11.8994C14.5057 17.5394 16.442 16.3262 17.3434 14.5102H7.67596ZM17.8454 12.882H7.67596V11.1731H17.8481C17.8858 11.442 17.905 11.7177 17.905 11.9988V12.0388C17.905 12.3264 17.8849 12.6079 17.8454 12.882ZM11.8994 6.45817C14.5177 6.45817 16.4598 7.70343 17.3558 9.54498H7.67596V6.45817H11.8994Z" fill="white"/>
</svg>

<svg xmlns="http://www.w3.org/2000/svg" width="24" height="24" fill="none"><path fill="#F9A606" d="M12 24c6.627 0 12-5.373 12-12S18.627 0 12 0 0 5.373 0 12s5.373 12 12 12"/><path stroke="#000" stroke-opacity=".097" d="M23.5 12c0 6.351-5.149 11.5-11.5 11.5S.5 18.351.5 12 5.649.5 12 .5 23.5 5.649 23.5 12Z"/><path fill="#fff" fill-rule="evenodd" d="M6.037 5H11.9c3.566 0 6.27 1.851 7.275 4.545H21v1.628h-1.442q.043.386.043.786v.04q0 .45-.054.883H21v1.628h-1.86C18.106 17.166 15.424 19 11.9 19H6.036v-4.49H4v-1.628h2.037v-1.709H4V9.545h2.037zm1.639 9.51v3.03h4.223c2.607 0 4.543-1.214 5.444-3.03zm10.17-1.628H7.675v-1.709h10.172q.057.404.057.826v.04q0 .431-.06.843m-5.947-6.424c2.619 0 4.56 1.245 5.457 3.087h-9.68V6.458z" clip-rule="evenodd"/></svg>
